FINK
CUT[HERR BRUDER DIR ZU EHREN]
REG[Europa, Mitteleuropa, Deutschland]
KEY[F0546  16  D 3/8]
MEL[1_  -1__-2_  -3__-4_  -5_-3_
    -1_  1__-7_  -6__-5_  -5_-4_
    -3_  -2__-2_  1_-6_-4#_  -5__0_
    0__-5_  1__-7_  -6__-5_  -5_-4_
    -3_  -6__-5_  -5__-4_  -4_-3_
    -5_  -1__-1_  -3__-5_  1__
    -7-6  -5__-5_  -6__-5-4  -3__-3_
    -5_-6_-5_  -5_-6_-7_  1__ //] >>
FCT[Studenten -, Trink - Lied]
